; START SEQUENCE (in printers.json)
;START_OF_HEADER
;HEADER_VERSION:0.1
;FLAVOR:Griffin
;GENERATOR.NAME:Cura_SteamEngine
;GENERATOR.VERSION:5.8.1
;GENERATOR.BUILD_DATE:2024-12-17
;TARGET_MACHINE.NAME:Ultimaker S3
;EXTRUDER_TRAIN.0.INITIAL_TEMPERATURE:205
;EXTRUDER_TRAIN.0.MATERIAL.VOLUME_USED:5
;EXTRUDER_TRAIN.0.MATERIAL.GUID:44a029e6-e31b-4c9e-a12f-9282e29a92ff
;EXTRUDER_TRAIN.0.NOZZLE.DIAMETER:0.4
;EXTRUDER_TRAIN.0.NOZZLE.NAME:AA 0.4
;BUILD_PLATE.INITIAL_TEMPERATURE:60
;BUILD_VOLUME.TEMPERATURE:28
;PRINT.SIZE.MIN.X:0
;PRINT.SIZE.MIN.Y:0
;PRINT.SIZE.MIN.Z:0
;PRINT.SIZE.MAX.X:230
;PRINT.SIZE.MAX.Y:190
;PRINT.SIZE.MAX.Z:200
;END_OF_HEADER
;Generated with Cura_SteamEngine 5.8.1

T0
G90 ; absolute pos
M83 ; relative extrusion
M190 S60 ; heat bed
M109 S205 T0 ; heat nozzle
G29 ; leveling
M420 S1 
M500 ; mesh leveling
G0 Z20.001
M106 S255 ; fan full speed
M204 S1500 ; general acceleration

M205 X30 Y30 ; start position
G92 E0 ; extr = 0
G1 F200 E6 ; 6 mm of extra to compensate end sequence retraction

; LAYER 1
G0 X0.000000 Y0.000000 Z0.200000 F1500.000000 E0.000
G0 X10.000000 Y0.000000 Z0.200000 F9000.000000 E0.000
G0 X20.000000 Y0.000000 Z0.200000 F9000.000000 E0.000
G0 X15.000000 Y8.660254 Z0.200000 F9000.000000 E0.000
G0 X10.000000 Y17.320508 Z0.200000 F9000.000000 E0.000
G0 X5.000000 Y8.660254 Z0.200000 F9000.000000 E0.000
G0 X0.000000 Y0.000000 Z0.200000 F9000.000000 E0.000
G0 X10.000000 Y0.000000 Z0.200000 F9000.000000 E0.000
G0 X20.000000 Y0.000000 Z0.200000 F9000.000000 E0.000
G0 X40.000000 Y0.000000 Z0.200000 F9000.000000 E0.000
G0 X35.000000 Y8.660254 Z0.200000 F9000.000000 E0.000
G0 X30.000000 Y17.320508 Z0.200000 F9000.000000 E0.000
G0 X25.000000 Y8.660254 Z0.200000 F9000.000000 E0.000
G0 X30.000000 Y0.000000 Z0.200000 F9000.000000 E0.000
G0 X20.000000 Y0.000000 Z0.200000 F9000.000000 E0.000
G0 X30.000000 Y0.000000 Z0.200000 F9000.000000 E0.000
G0 X40.000000 Y0.000000 Z0.200000 F9000.000000 E0.000
G0 X35.000000 Y8.660254 Z0.200000 F9000.000000 E0.000
G0 X30.000000 Y17.320508 Z0.200000 F9000.000000 E0.000
G0 X20.000000 Y34.641016 Z0.200000 F9000.000000 E0.000
G0 X15.000000 Y25.980762 Z0.200000 F9000.000000 E0.000
G0 X10.000000 Y17.320508 Z0.200000 F9000.000000 E0.000
G0 X20.000000 Y17.320508 Z0.200000 F9000.000000 E0.000
G0 X25.000000 Y25.980762 Z0.200000 F9000.000000 E0.000
G0 X30.000000 Y17.320508 Z0.200000 F9000.000000 E0.000
G0 X25.000000 Y25.980762 Z0.200000 F9000.000000 E0.000
G0 X20.000000 Y34.641016 Z0.200000 F9000.000000 E0.000
G0 X15.000000 Y25.980762 Z0.200000 F9000.000000 E0.000
G0 X10.000000 Y17.320508 Z0.200000 F9000.000000 E0.000
G0 X5.000000 Y8.660254 Z0.200000 F9000.000000 E0.000
G0 X0.000000 Y0.000000 Z0.200000 F9000.000000 E0.000
 


; END SEQUENCE
M104 S0 ; cool down nozzle
M140 S0 ; cool down bed
G91 ; relative pos
G1 E-1 F300 ; retract extr
G1 Z0.5 E-5 F300; retract even more while getting 5 mm higher
G90 ; absolute pos

G28 X0 Y0 ; go home but not in Z
M107 ; fan off
M84 ; turn head motors off (to move head freely by hand)

